!!!OTL: Posaunen im Ehestand (3-94), S. 259
!!!id: P1067
**kern
*clefG2
*k[b-e-a-d-]
*A-:
{8e-
=1
4a-
8a-
=2
8.a-
16g
8a-
=3
4b-
8g
=4
4e-
8cc
=5
[4.a-
=6
8a-]}
8r
=7
{8a-
=8
4dd-
8dd-
=9
8.dd-
16cc
8b-
=10
4cc
8cc
=11
4ee-}
=12
{8cc
=13
8b-
8b-
8b-
=14
8.b-
16cc
8b-
=15
4a-
8b-
=16
4.cc}
=17
{8.a-
16g
8f
=18
8.b-
16a-
8g
=19
[4.a-
=20
8a-]}
8r
==
*-
!!!minrhy: 16
!!!meters: 3/8 ]  ZZ[4
!!!cut: Posaunen im Ehestand (3-94), S. 259
!!!reg: Lothringen
!!!trd: PINCK, Louis: Verklingende Weisen, Bd3, Metz 1933
!!!rhy1: X_  X__X_  X_.XX_  X__X_  X__X_  X__.  ^_0_
!!!rhy2: X_  X__X_  X_.XX_  X__X_  X__
!!!key: P1067  16 Ab 3/8 ]  ZZ[4
!!!mod: HEPTATONIK IONISCH]  AMBITUS[8
!!!kad: 1531
!!!akz: 112-511_4435_2213_1211_
!!!fot: 'a__b__c__d__
!!!for: 'a__aw_b__c__
!!!fok: '^a_~a_V__V__
!! PHRAS[VORWIEGEND AUFTAKTIG]
!!!fkt: Eheverdru&szlig;
!! LOTH VKL
!! PR[44] 2K[6] 2G[10] 3K[2] 3G[6] 4A[0] 4Ü[0] 5A[0] 6K[0] 6G[0]
!! 7K[2] 7G[0] 8A[2] MEHR[0] SI[29] ABS[48] SR[17] SP[13]
!! ST[15] 2k[2] 2g[6] 3k[8] 3g[6] 4d[0] 4ü[0] 5d[2] 6k[0] 6g[0]
!! 7k[0] 7g[0] 8d[2] mehr[0] si[27] dm[+2] sr[8] sp[19]
!! 1F[88] 2F[10] 3F[2] 4F[0] LF[0] 2P[0] 3P[0] 4P[0] TRI[0] DF[3] AB[52]
!! TF[0] U3K[0] U3[0] U4[0] U4Ü[0] U5[6] U6K[0] U6[0] U7K[0] U7[4]
!! N1[22] N2K[0] N2[29] N3K[0] N3[22] N4[12] N4Ü[0] N5[4] N6K[0] N6[0]
!!!n7k: 0] N7[0] O1[0] O2K[0] O2[0] O3K[0] O3[0] HÖ[0
!!!RNB: symbol: &szlig; = sz ligature (UTF-8: ÃŸ)
